assets/kitchen-color/KitchenColor12.svg

<svg xmlns="http://www.w3.org/2000/svg" data-name="Layer 1" viewBox="0 0 128 128"><path fill="#332929" d="M105.512 22.645H60.883a38.512 38.512 0 00-38.394 38.219h81.071a1.962 1.962 0 001.952-1.952zM89.849 34.192H65.707a3.6 3.6 0 000 7.2h24.142a3.6 3.6 0 000-7.2zm-24.143-4.2h24.143a7.8 7.8 0 010 15.6H65.707a7.8 7.8 0 010-15.6zm-35.955 75.163V79.893a6.226 6.226 0 00-4.633 5.992v13.278a6.226 6.226 0 004.633 5.991zm8.661.2V79.692h-4.46v25.663zm4.2-25.462v25.262a6.227 6.227 0 004.633-5.991V85.885a6.227 6.227 0 00-4.633-5.992zm18.27-61.449h44.791a4.045 4.045 0 014.039 4.039v36.43a6.165 6.165 0 01-6.153 6.152H38.283v10.426h2.771a10.419 10.419 0 0110.393 10.394v13.278a10.419 10.419 0 01-10.393 10.393H31.31a10.419 10.419 0 01-10.393-10.393V85.885A10.419 10.419 0 0131.31 75.491h2.772V65.065h-11.77a4.006 4.006 0 01-2.836-1.18l-.008-.008a4.006 4.006 0 01-1.181-2.836 42.716 42.716 0 0142.6-42.6z"/><path fill="#e5e5e5" fill-rule="evenodd" d="M89.849 45.591H65.707a7.8 7.8 0 010-15.6h24.142a7.8 7.8 0 010 15.6zM33.768 33.925a38.28 38.28 0 00-11.279 26.939h81.071a1.962 1.962 0 001.952-1.952V22.645H60.883a38.276 38.276 0 00-27.115 11.28z"/></svg>

<svg id="Layer_1" data-name="Layer 1" xmlns="http://www.w3.org/2000/svg" viewBox="0 0 128 128"><title>Artboard 12</title><path d="M105.512,22.645H60.883A38.512,38.512,0,0,0,22.489,60.864H103.56a1.962,1.962,0,0,0,1.952-1.952ZM89.849,34.192H65.707a3.6,3.6,0,0,0,0,7.2H89.849a3.6,3.6,0,0,0,0-7.2Zm-24.143-4.2H89.849a7.8,7.8,0,0,1,0,15.6H65.707a7.8,7.8,0,0,1,0-15.6ZM29.751,105.155V79.893a6.226,6.226,0,0,0-4.633,5.992V99.163a6.226,6.226,0,0,0,4.633,5.991Zm8.661.2V79.692H33.952v25.663Zm4.2-25.462v25.262a6.227,6.227,0,0,0,4.633-5.991V85.885a6.227,6.227,0,0,0-4.633-5.992Zm18.27-61.449h44.791a4.045,4.045,0,0,1,4.039,4.039v36.43a6.165,6.165,0,0,1-6.153,6.152H38.283V75.491h2.771A10.419,10.419,0,0,1,51.447,85.885V99.163a10.419,10.419,0,0,1-10.393,10.393H31.31A10.419,10.419,0,0,1,20.917,99.163V85.885A10.419,10.419,0,0,1,31.31,75.491h2.772V65.065H22.312a4.006,4.006,0,0,1-2.836-1.18l-.008-.008a4.006,4.006,0,0,1-1.181-2.836h0a42.716,42.716,0,0,1,42.6-42.6Z" style="fill:#332929"/><path d="M89.849,45.591H65.707a7.8,7.8,0,0,1,0-15.6H89.849a7.8,7.8,0,0,1,0,15.6ZM33.768,33.925A38.28,38.28,0,0,0,22.489,60.864H103.56a1.962,1.962,0,0,0,1.952-1.952V22.645H60.883A38.276,38.276,0,0,0,33.768,33.925Z" style="fill:#e5e5e5;fill-rule:evenodd"/></svg>
